img/contact/plus.svg

<svg width="20" height="20" viewBox="0 0 20 20" fill="none" xmlns="http://www.w3.org/2000/svg">
<path d="M9 15H11V11H15V9H11V5H9V9H5V11H9V15ZM10 20C8.61667 20 7.31667 19.7417 6.1 19.225C4.88333 18.6917 3.825 17.975 2.925 17.075C2.025 16.175 1.30833 15.1167 0.775 13.9C0.258333 12.6833 0 11.3833 0 10C0 8.61667 0.258333 7.31667 0.775 6.1C1.30833 4.88333 2.025 3.825 2.925 2.925C3.825 2.025 4.88333 1.31667 6.1 0.799999C7.31667 0.266666 8.61667 0 10 0C11.3833 0 12.6833 0.266666 13.9 0.799999C15.1167 1.31667 16.175 2.025 17.075 2.925C17.975 3.825 18.6833 4.88333 19.2 6.1C19.7333 7.31667 20 8.61667 20 10C20 11.3833 19.7333 12.6833 19.2 13.9C18.6833 15.1167 17.975 16.175 17.075 17.075C16.175 17.975 15.1167 18.6917 13.9 19.225C12.6833 19.7417 11.3833 20 10 20ZM10 18C12.2333 18 14.125 17.225 15.675 15.675C17.225 14.125 18 12.2333 18 10C18 7.76667 17.225 5.875 15.675 4.325C14.125 2.775 12.2333 2 10 2C7.76667 2 5.875 2.775 4.325 4.325C2.775 5.875 2 7.76667 2 10C2 12.2333 2.775 14.125 4.325 15.675C5.875 17.225 7.76667 18 10 18Z" fill="#EAF9FF"/>
</svg>

<svg width="20" height="20" fill="none" xmlns="http://www.w3.org/2000/svg"><path d="M9 15h2v-4h4V9h-4V5H9v4H5v2h4v4Zm1 5a9.873 9.873 0 0 1-3.9-.775 10.274 10.274 0 0 1-3.175-2.15c-.9-.9-1.617-1.958-2.15-3.175A9.873 9.873 0 0 1 0 10c0-1.383.258-2.683.775-3.9a10.275 10.275 0 0 1 2.15-3.175c.9-.9 1.958-1.608 3.175-2.125A9.607 9.607 0 0 1 10 0c1.383 0 2.683.267 3.9.8a9.927 9.927 0 0 1 3.175 2.125c.9.9 1.608 1.958 2.125 3.175.533 1.217.8 2.517.8 3.9a9.607 9.607 0 0 1-.8 3.9 9.927 9.927 0 0 1-2.125 3.175c-.9.9-1.958 1.617-3.175 2.15A9.873 9.873 0 0 1 10 20Zm0-2c2.233 0 4.125-.775 5.675-2.325C17.225 14.125 18 12.233 18 10c0-2.233-.775-4.125-2.325-5.675C14.125 2.775 12.233 2 10 2c-2.233 0-4.125.775-5.675 2.325C2.775 5.875 2 7.767 2 10c0 2.233.775 4.125 2.325 5.675C5.875 17.225 7.767 18 10 18Z" fill="#EAF9FF"/></svg>
